X:687
T:John MacNeill's Reel
C:Joe Buchanan's Scottish Tome - Page 215.2
I:215 2
Z:Carl Allison
C:R. Milne
R:Reel
L:1/8
M:4/4
K:A
C | "A"A,2 CE FECE | AECE FECE | A,2 CE FEDE | "D"FAGG "E7"EDCB, |
"A"A,2 CF FECE | AECE FEDC| "Bm"B,D"A"CE "D"DF"E"EG | "D"FA"D"GB "A" cA A |]
e | "A"eA"D"fA "A"eAca | "A"eA"D"fA e2 "A"f/g/b | "A"eA"D"fA "A"eAce | "D"df"A"ca "E"B2 (d/e/f) |
"A"eA"D"fA "A"eAca | "A"eAgA "A"e2 (e/f/g) | agag "D"fedc | "Bm"BAGG "E7"EDCB, |]
